X:823
T:Was'nt she fond of me?
R:Jig
O:Ireland
B:O'Neill's 865
S:O'Neill's 865
Z:Transcription, arrangement, chords:Mike Long
M:6/8
L:1/8
K:G
"Am"eAA eAA|"Am"efe "G"edB|"Am"eAA eAA|"G"ded BAG|\
"Am"eAA eAA|"Am"efe "G"edB|"G"def gfg|edc BAG:|
|:"G"def {a}gfg|"Am"edB eAA|"G"def gfg|"Em"edc BAG|\
"G"def {a}gfg|"Am"aba abc'|"G"bag g=fe|dge dBG:|
